X:1
T:Title
%%score { ( 1 3 ) | 2 }
L:1/8
Q:1/4=100
M:9/8
K:Db
V:1 treble nm="Grand Piano"
V:3 treble 
V:2 bass 
V:1
 D2 E F2 [FA] [Fd]2 [GB] | [FA]3 [DF]6 |[M:21/16] [CE]->[CE][DF] [CEG]3 [A,CG]3/2- [A,CG]3 | %3
w: Wiliiam~Stone * * * * *|||
[M:9/8] C2 E D6 | D2 E F2 [FA] [Fd]2 [GB] | [FA]3 [DF]6 | %6
w: |||
[M:21/16] [FA]->[FA][FB] [Ec]3 [=Gd]3/2- [Gd]3 |[M:9/8] [DE=G]2 [DEB] [CEA]6 |[M:6/8] .d6 | %9
w: |||
 [Fd]3 [FA]3 | [DF][DG][GB] [FA]3 | [DF][DG][GB] [FA]3 | .d6 |[M:15/16] [Fc]3 [DFA]3/2- [DFA]3 | %14
w: |||||
[M:3/4] [F,D][A,DF] [DGB][DFA] [A,DF]2[Q:1/4=97][Q:1/4=94][Q:1/4=91][Q:1/4=88][Q:1/4=84][Q:1/4=81][Q:1/4=78] | %15
w: |
 [G,CE]3 [F,A,D]3 |] %16
w: |
V:2
 [D,F,]2 [D,G,D] [D,A,D]2 [D,A,] [D,A,]2 [D,D] | [D,D]3 [D,A,]6 | %2
[M:21/16] [A,,A,]->[A,,A,][A,,A,] A,,3 A,,3/2- A,,3 |[M:9/8] [A,,G,A,]2 [A,,G,A,] [D,F,A,]6 | %4
 [D,F,]2 [D,G,D] [D,A,D]2 [D,A,] [D,A,]2 [D,D] | [D,D]3 [D,A,]6 | %6
[M:21/16] [D,D]->[D,D][D,D] [E,A,]3 [E,B,]3/2- [E,B,]3 |[M:9/8] E,2 E, A,,6 | %8
[M:6/8] [D,A,][D,A,][D,A,] [D,D][D,D][D,D] | [D,A,]3 [D,D]3 | [D,A,][D,B,][D,D] [D,D]3 | %11
 [D,A,][D,B,][D,D] [D,D]3 | [D,A,][D,A,][D,A,] [D,D][D,D][D,D] |[M:15/16] [D,A,]3 D,3/2- D,3 | %14
[M:3/4] D,D, D,D, D,2 | A,,3 D,3 |] %16
V:3
 x9 | x9 |[M:21/16] x21/2 |[M:9/8] x9 | x9 | x9 |[M:21/16] x21/2 |[M:9/8] x9 | %8
[M:6/8] FFF F[Fc][FB] | x6 | x6 | x6 | FFF F[Fc][FB] |[M:15/16] x15/2 |[M:3/4] x6 | x6 |] %16

